src/assets/signals/daa.svg

<svg width="32" height="33" viewBox="0 0 32 33" fill="none" xmlns="http://www.w3.org/2000/svg">
<path d="M14.75 10.5C14.75 10.0858 15.0858 9.75 15.5 9.75H18.5C18.9142 9.75 19.25 10.0858 19.25 10.5C19.25 10.9142 18.9142 11.25 18.5 11.25H15.5C15.0858 11.25 14.75 10.9142 14.75 10.5Z" fill="#181B2B"/>
<path d="M25.5 9.75C25.0858 9.75 24.75 10.0858 24.75 10.5C24.75 10.9142 25.0858 11.25 25.5 11.25H26.5C26.9142 11.25 27.25 10.9142 27.25 10.5C27.25 10.0858 26.9142 9.75 26.5 9.75H25.5Z" fill="#181B2B"/>
<path fill-rule="evenodd" clip-rule="evenodd" d="M10.5 25.75C9.5335 25.75 8.75 26.5335 8.75 27.5C8.75 28.4665 9.5335 29.25 10.5 29.25C11.4665 29.25 12.25 28.4665 12.25 27.5C12.25 26.5335 11.4665 25.75 10.5 25.75ZM10.25 27.5C10.25 27.3619 10.3619 27.25 10.5 27.25C10.6381 27.25 10.75 27.3619 10.75 27.5C10.75 27.6381 10.6381 27.75 10.5 27.75C10.3619 27.75 10.25 27.6381 10.25 27.5Z" fill="#181B2B"/>
<path fill-rule="evenodd" clip-rule="evenodd" d="M10.75 1.5C10.75 1.08579 11.0858 0.75 11.5 0.75H30.5C30.9142 0.75 31.25 1.08579 31.25 1.5V14.5C31.25 14.9142 30.9142 15.25 30.5 15.25H11.5C11.0858 15.25 10.75 14.9142 10.75 14.5V9.25H2.25V22.75H18.75V18.5C18.75 18.0858 19.0858 17.75 19.5 17.75C19.9142 17.75 20.25 18.0858 20.25 18.5V29.5C20.25 31.0142 19.0142 32.25 17.5 32.25H3.5C1.98579 32.25 0.75 31.0142 0.75 29.5V5.5C0.75 3.98579 1.98579 2.75 3.5 2.75H10.75V1.5ZM29.75 2.25H12.25V4.75H29.75V2.25ZM12.25 6.25H29.75V13.75H12.25V6.25ZM10.75 4.25H3.5C2.81421 4.25 2.25 4.81421 2.25 5.5V7.75H10.75V4.25ZM2.25 24.25V29.5C2.25 30.1858 2.81421 30.75 3.5 30.75H17.5C18.1858 30.75 18.75 30.1858 18.75 29.5V24.25H2.25Z" fill="#181B2B"/>
</svg>

<svg width="32" height="33" fill="none" xmlns="http://www.w3.org/2000/svg"><path d="M14.75 10.5a.75.75 0 0 1 .75-.75h3a.75.75 0 0 1 0 1.5h-3a.75.75 0 0 1-.75-.75zM25.5 9.75a.75.75 0 0 0 0 1.5h1a.75.75 0 0 0 0-1.5h-1z" fill="#181B2B"/><path fill-rule="evenodd" clip-rule="evenodd" d="M10.5 25.75a1.75 1.75 0 1 0 0 3.5 1.75 1.75 0 0 0 0-3.5zm-.25 1.75a.25.25 0 1 1 .5 0 .25.25 0 0 1-.5 0z" fill="#181B2B"/><path fill-rule="evenodd" clip-rule="evenodd" d="M10.75 1.5a.75.75 0 0 1 .75-.75h19a.75.75 0 0 1 .75.75v13a.75.75 0 0 1-.75.75h-19a.75.75 0 0 1-.75-.75V9.25h-8.5v13.5h16.5V18.5a.75.75 0 0 1 1.5 0v11a2.756 2.756 0 0 1-2.75 2.75h-14A2.756 2.756 0 0 1 .75 29.5v-24A2.756 2.756 0 0 1 3.5 2.75h7.25V1.5zm19 .75h-17.5v2.5h17.5v-2.5zm-17.5 4h17.5v7.5h-17.5v-7.5zm-1.5-2H3.5c-.686 0-1.25.564-1.25 1.25v2.25h8.5v-3.5zm-8.5 20v5.25c0 .686.564 1.25 1.25 1.25h14c.686 0 1.25-.564 1.25-1.25v-5.25H2.25z" fill="#181B2B"/></svg>
